docs/.gitbook/assets/icon-bath-tub-16@light.svg

<svg width="32" height="32" viewBox="0 0 16 16" fill="none" xmlns="http://www.w3.org/2000/svg">
<rect x="0" y="0" width="16" height="16" fill="#fff"/>
<path fill-rule="evenodd" clip-rule="evenodd" d="M5.75002 2.5C5.05966 2.5 4.50002 3.05964 4.50002 3.75V7.0025C5.47975 7.27513 6.68696 7.5 8.00002 7.5C9.64649 7.5 11.1265 7.14643 12.2003 6.78849C12.7355 6.6101 13.165 6.43224 13.4579 6.30043C13.6042 6.23459 13.7161 6.1804 13.7896 6.14363C13.8264 6.12525 13.8535 6.11124 13.8706 6.10232L13.8885 6.09285L13.8909 6.09158L13.8912 6.09141C14.2548 5.89331 14.7102 6.02733 14.9084 6.39086C15.1068 6.7545 14.9728 7.21007 14.6092 7.40842L14.25 6.75C14.6092 7.40842 14.609 7.40852 14.6088 7.40863L14.6083 7.40887L14.6073 7.40945L14.6044 7.41102L14.5956 7.41575L14.566 7.43137C14.5411 7.44442 14.5057 7.46264 14.4604 7.48527C14.3699 7.53053 14.2396 7.59354 14.0734 7.66832C14.0497 7.679 14.0252 7.68992 14 7.70107V9.25C14 10.5462 13.4808 11.7212 12.639 12.5783L13.7803 13.7197C14.0732 14.0126 14.0732 14.4874 13.7803 14.7803C13.4875 15.0732 13.0126 15.0732 12.7197 14.7803L11.4173 13.4779C10.7675 13.8116 10.0307 14 9.25002 14H6.75002C5.96929 14 5.23256 13.8116 4.58278 13.4779L3.28035 14.7803C2.98746 15.0732 2.51258 15.0732 2.21969 14.7803C1.9268 14.4874 1.9268 14.0126 2.21969 13.7197L3.36107 12.5783C2.51925 11.7212 2.00002 10.5462 2.00002 9.25V7.70107C1.97482 7.68992 1.95035 7.679 1.92662 7.66832C1.76045 7.59354 1.63013 7.53053 1.53961 7.48527C1.49434 7.46264 1.45898 7.44442 1.43404 7.43137L1.40448 7.41575L1.39566 7.41102L1.39277 7.40945L1.3917 7.40887L1.39126 7.40863C1.39106 7.40852 1.39088 7.40842 1.75002 6.75L1.39088 7.40842C1.02724 7.21007 0.893251 6.7545 1.0916 6.39086C1.28989 6.02733 1.74526 5.89331 2.10885 6.09141L2.10916 6.09158L2.11155 6.09285L2.12947 6.10232C2.14652 6.11124 2.17367 6.12525 2.21043 6.14363C2.28397 6.1804 2.39584 6.23459 2.54217 6.30043C2.66974 6.35784 2.8232 6.42398 3.00002 6.49509V3.75C3.00002 2.23122 4.23124 1 5.75002 1H7.25002C7.66423 1 8.00002 1.33579 8.00002 1.75C8.00002 2.16421 7.66423 2.5 7.25002 2.5H5.75002ZM3.50002 8.26863V9.25C3.50002 11.0449 4.95509 12.5 6.75002 12.5H9.25002C11.0449 12.5 12.5 11.0449 12.5 9.25V8.26863C11.3382 8.64115 9.76353 9 8.00002 9C6.23651 9 4.66182 8.64115 3.50002 8.26863Z" fill="#000"/>
</svg>

<svg xmlns="http://www.w3.org/2000/svg" width="32" height="32" fill="none" viewBox="0 0 16 16"><path fill="#fff" d="M0 0h16v16H0z"/><path fill="#000" fill-rule="evenodd" d="M5.75 2.5c-.69 0-1.25.56-1.25 1.25v3.253c.98.272 2.187.497 3.5.497 1.646 0 3.127-.354 4.2-.712a14 14 0 0 0 1.258-.488 9 9 0 0 0 .413-.198l.018-.01h.002a.75.75 0 0 1 .718 1.316l-.359-.658c.36.658.359.659.359.659h-.002l-.003.002-.008.005-.03.015-.106.054a11 11 0 0 1-.46.216V9.25c0 1.296-.52 2.471-1.361 3.328l1.141 1.142a.75.75 0 1 1-1.06 1.06l-1.303-1.302A4.7 4.7 0 0 1 9.25 14h-2.5a4.7 4.7 0 0 1-2.167-.522L3.28 14.78a.75.75 0 0 1-1.06-1.06l1.141-1.142A4.74 4.74 0 0 1 2 9.25V7.701a13 13 0 0 1-.566-.27l-.03-.015-.008-.005-.003-.002h-.001l.358-.659-.36.658a.75.75 0 0 1 .719-1.317l.003.002.017.01.081.04q.112.057.332.157.192.088.458.195V3.75A2.75 2.75 0 0 1 5.75 1h1.5a.75.75 0 0 1 0 1.5zM3.5 8.269v.981a3.25 3.25 0 0 0 3.25 3.25h2.5a3.25 3.25 0 0 0 3.25-3.25v-.981C11.338 8.64 9.764 9 8 9s-3.338-.359-4.5-.731" clip-rule="evenodd"/></svg>
